X:285
T:High thee Jemmy Home again
A:Wyresdale, Lancashire
B:E and J Winder, 1835-41
L:1/8
M:C|
O:England
Z:Richard Robinson 
%%RRN:"for a Reel"
%%TUNEURL: http://www.leeds.ac.uk/music/Info/RRTuneBk/gettune/00000eb1.html
%%ID:00000eb1
K:C
(ef) (ef) ga ge | (de) dc BG B2 | (ef) (ef) ga (ge) | de dc BG B2 :: !\
eA (3cBA eA (3cBA | eA (3cBA BG B2 |\
eA (3cBA eA (3cBA | BG BG BG B2 |]
